;Generated with Cura_SteamEngine 15.04
;Basic settings: Layer height: 0.25 Walls: 4 Fill: 20
;Print time: ?print_time?
;Filament used: ?filament_amount?m ?filament_weight?g
;Filament cost: ?filament_cost?
;M190 R110 ;Uncomment to add your own bed temperature line
;M109 R240 ;Uncomment to add your own temperature line
G26                          ; clear potential 'probe fail' condition
G21                          ; metric values
G90                          ; absolute positioning
M82                          ; set extruder to absolute mode
M107                         ; start with the fan off
G92 E0                       ; set extruder position to 0
M140 S110; get bed heating up
G28                          ; home all
M109 R150                    ; set to cleaning temp and wait
G1 Z150 E-30 F75             ; suck up XXmm of filament
M109 R170                    ; heat up rest of way
G1 X45 Y174 F11520           ; move behind scraper
G1 Z0  F1200                 ; CRITICAL: set Z to height of top of scraper
G1 X45 Y174 Z-.5 F4000       ; wiping ; plunge into wipe pad
G1 X55 Y172 Z-.5 F4000       ; wiping
G1 X45 Y174 Z0 F4000         ; wiping
G1 X55 Y172 F4000            ; wiping
G1 X45 Y174 F4000            ; wiping
G1 X55 Y172 F4000            ; wiping
G1 X45 Y174 F4000            ; wiping
G1 X55 Y172 F4000            ; wiping
G1 X60 Y174 F4000            ; wiping
G1 X80 Y172 F4000            ; wiping
G1 X60 Y174 F4000            ; wiping
G1 X80 Y172 F4000            ; wiping
G1 X60 Y174 F4000            ; wiping
G1 X90 Y172 F4000            ; wiping
G1 X80 Y174 F4000            ; wiping
G1 X100 Y172 F4000           ; wiping
G1 X80 Y174 F4000            ; wiping
G1 X100 Y172 F4000           ; wiping
G1 X80 Y174 F4000            ; wiping
G1 X100 Y172 F4000           ; wiping
G1 X110 Y174 F4000           ; wiping
G1 X100 Y172 F4000           ; wiping
G1 X110 Y174 F4000           ; wiping
G1 X100 Y172 F4000           ; wiping
G1 X110 Y174 F4000           ; wiping
G1 X115 Y172 Z-0.5 F1000     ; wipe slower and bury noz in cleanish area
G1 Z10                       ; raise z
G28 X0 Y0                    ; home x and y
M109 R170                    ; set to probing temp
M204 S300                    ; set accel for probing
G29                          ; Probe
M204 S2000                   ; set accel back to normal
G1 X5 Y15 Z10 F5000          ; get out the way
M400                         ; clear buffer
G4 S1                        ; pause
M109 R240    ; set extruder temp and wait
G4 S25                       ; wait for bed to temp up
G1 Z2 E0 F75                 ; extrude filament back into nozzle
M140 S110; get bed temping up during first layer

;Layer count: 399
;LAYER:0
M107
G0 F10500 X20.198 Y67.563 Z0.425
;TYPE:SKIRT
G1 F900 X131.802 Y67.563 E4.64696
G1 X131.802 Y84.437 E5.34956
G1 X20.198 Y84.437 E9.99652
G1 X20.198 Y67.563 E10.69912
G0 F10500 X20.823 Y68.188
G1 F900 X131.177 Y68.188 E15.29404
G1 X131.177 Y83.812 E15.94459
G1 X20.823 Y83.812 E20.53950
G1 X20.823 Y68.188 E21.19005
G0 F10500 X21.448 Y68.813
G1 F900 X130.552 Y68.813 E25.73292
G1 X130.552 Y83.187 E26.33142
G1 X21.448 Y83.187 E30.87429
G1 X21.448 Y68.813 E31.47279
G0 F10500 X22.073 Y69.438
G1 F900 X129.927 Y69.438 E35.96361
G1 X129.927 Y82.562 E36.51007
G1 X22.073 Y82.562 E41.00089
G1 X22.073 Y69.438 E41.54735
G0 F10500 X22.698 Y70.063
G1 F900 X129.302 Y70.063 E45.98612
G1 X129.302 Y81.937 E46.48053
G1 X22.698 Y81.937 E50.91930
G1 X22.698 Y70.063 E51.41371
G0 F10500 X23.323 Y70.688
G1 F900 X128.677 Y70.688 E55.80043
G1 X128.677 Y81.312 E56.24279
G1 X23.323 Y81.312 E60.62952
G1 X23.323 Y70.688 E61.07188
G0 F10500 X23.948 Y71.313
G1 F900 X128.052 Y71.313 E65.40656
G1 X128.052 Y80.687 E65.79687
G1 X23.948 Y80.687 E70.13155
G1 X23.948 Y71.313 E70.52186
G0 F10500 X24.573 Y71.938
G1 F900 X127.427 Y71.938 E74.80449
G1 X127.427 Y80.062 E75.14276
G1 X24.573 Y80.062 E79.42539
G1 X24.573 Y71.938 E79.76366
G0 F10500 X25.198 Y72.563
G1 F900 X126.802 Y72.563 E83.99424
G1 X126.802 Y79.437 E84.28046
G1 X25.198 Y79.437 E88.51104
G1 X25.198 Y72.563 E88.79726
G0 F10500 X25.823 Y73.188
G1 F900 X126.177 Y73.188 E92.97579
G1 X126.177 Y78.812 E93.20997
G1 X25.823 Y78.812 E97.38850
G1 X25.823 Y73.188 E97.62267
G0 F10500 X26.860 Y74.135
G0 X31.711 Y75.905
;TYPE:FILL
G1 F900 X31.899 Y76.093 E97.63374
G0 F10500 X35.247 Y75.905
G1 F900 X35.435 Y76.093 E97.64481
G0 F10500 X38.782 Y75.905
G1 F900 X38.970 Y76.093 E97.65588
G0 F10500 X42.318 Y75.905
G1 F900 X42.506 Y76.093 E97.66696
G0 F10500 X45.853 Y75.905
G1 F900 X46.041 Y76.093 E97.67803
G0 F10500 X49.389 Y75.905
G1 F900 X49.577 Y76.093 E97.68910
G0 F10500 X52.924 Y75.905
G1 F900 X53.112 Y76.093 E97.70017
G0 F10500 X56.460 Y75.905
G1 F900 X56.648 Y76.093 E97.71124
G0 F10500 X59.995 Y75.905
G1 F900 X60.183 Y76.093 E97.72231
G0 F10500 X63.531 Y75.905
G1 F900 X63.719 Y76.093 E97.73338
G0 F10500 X67.066 Y75.905
G1 F900 X67.255 Y76.093 E97.74448
G0 F10500 X70.602 Y75.905
G1 F900 X70.790 Y76.093 E97.75555
G0 F10500 X74.138 Y75.905
G1 F900 X74.326 Y76.093 E97.76662
G0 F10500 X77.673 Y75.905
G1 F900 X77.861 Y76.093 E97.77769
G0 F10500 X81.209 Y75.905
G1 F900 X81.397 Y76.093 E97.78876
G0 F10500 X84.744 Y75.905
G1 F900 X84.932 Y76.093 E97.79983
G0 F10500 X88.280 Y75.905
G1 F900 X88.468 Y76.093 E97.81090
G0 F10500 X91.815 Y75.905
G1 F900 X92.003 Y76.093 E97.82197
G0 F10500 X95.351 Y75.905
G1 F900 X95.539 Y76.093 E97.83304
G0 F10500 X98.886 Y75.905
G1 F900 X99.074 Y76.093 E97.84411
G0 F10500 X102.422 Y75.905
G1 F900 X102.610 Y76.093 E97.85518
G0 F10500 X105.957 Y75.905
G1 F900 X106.145 Y76.093 E97.86625
G0 F10500 X109.493 Y75.905
G1 F900 X109.681 Y76.093 E97.87732
G0 F10500 X113.028 Y75.905
G1 F900 X113.216 Y76.093 E97.88839
G0 F10500 X116.564 Y75.905
G1 F900 X116.752 Y76.093 E97.89946
G0 F10500 X120.099 Y75.905
G1 F900 X120.288 Y76.093 E97.91056
G0 F10500 X123.678 Y76.313
;TYPE:WALL-INNER
G1 F900 X28.322 Y76.313 E101.88099
G1 X28.322 Y75.687 E101.90706
G1 X123.678 Y75.687 E105.87748
G1 X123.678 Y76.313 E105.90355
G0 F10500 X124.303 Y76.938
G1 F900 X27.697 Y76.938 E109.92603
G1 X27.697 Y75.062 E110.00414
G1 X124.303 Y75.062 E114.02661
G1 X124.303 Y76.938 E114.10473
G0 F10500 X124.928 Y77.563
G1 F900 X27.072 Y77.563 E118.17925
G1 X27.072 Y74.437 E118.30941
G1 X124.928 Y74.437 E122.38393
G1 X124.928 Y77.563 E122.51409
G0 F10500 X125.553 Y78.188
;TYPE:WALL-OUTER
G1 F900 X26.447 Y78.188 E126.64066
G1 X26.447 Y73.812 E126.82287
G1 X125.553 Y73.812 E130.94944
G1 X125.553 Y78.188 E131.13165
G0 F10500 X125.140 Y77.865
G0 X124.240 Y76.875
;LAYER:1
M106 S102
G0 X123.502 Y76.250 Z0.675
;TYPE:WALL-INNER
G1 F1380 X28.498 Y76.250 E132.99319
G1 X28.498 Y75.750 E133.00299
G1 X123.503 Y75.750 E134.86455
G1 X123.502 Y76.250 E134.87434
G0 F10500 X124.002 Y76.750
G1 F1380 X27.998 Y76.750 E136.75548
G1 X27.998 Y75.250 E136.78487
G1 X124.003 Y75.250 E138.66602
G1 X124.002 Y76.750 E138.69541
G0 F10500 X124.502 Y77.250
G1 F1380 X27.498 Y77.250 E140.59614
G1 X27.498 Y74.750 E140.64513
G1 X124.503 Y74.750 E142.54588
G1 X124.502 Y77.250 E142.59486
G0 F10500 X125.002 Y77.750
G1 F1380 X26.998 Y77.750 E144.51519
G1 X26.998 Y74.250 E144.58377
G1 X125.003 Y74.250 E146.50411
G1 X125.002 Y77.750 E146.57269
G0 F10500 X125.502 Y78.250
;TYPE:WALL-OUTER
G1 F1320 X26.498 Y78.250 E148.51261
G1 X26.498 Y73.750 E148.60078
G1 X125.503 Y73.750 E150.54072
G1 X125.502 Y78.250 E150.62889
G0 F10500 X125.153 Y77.990
G0 X124.253 Y77.000
;LAYER:2
G0 X123.390 Y76.250 Z0.925
;TYPE:WALL-INNER
G1 F1920 X28.610 Y76.250 E152.48604
G1 X28.610 Y75.750 E152.49584
G1 X123.390 Y75.750 E154.35299
G1 X123.390 Y76.250 E154.36279
G0 F10500 X123.890 Y76.750
G1 F1920 X28.110 Y76.750 E156.23953
G1 X28.110 Y75.250 E156.26892
G1 X123.890 Y75.250 E158.14567
G1 X123.890 Y76.750 E158.17506
G0 F10500 X124.390 Y77.250
G1 F1920 X27.610 Y77.250 E160.07140
G1 X27.610 Y74.750 E160.12038
G1 X124.390 Y74.750 E162.01672
G1 X124.390 Y77.250 E162.06571
G0 F10500 X124.890 Y77.750
G1 F1920 X27.110 Y77.750 E163.98164
G1 X27.110 Y74.250 E164.05022
G1 X124.890 Y74.250 E165.96616
G1 X124.890 Y77.750 E166.03474
G0 F10500 X125.390 Y78.250
;TYPE:WALL-OUTER
G1 F1740 X26.610 Y78.250 E167.97026
G1 X26.610 Y73.750 E168.05844
G1 X125.390 Y73.750 E169.99397
G1 X125.390 Y78.250 E170.08214
G0 F10500 X125.040 Y77.990
G0 X124.140 Y77.000
;LAYER:3
G0 X123.277 Y76.250 Z1.175
;TYPE:WALL-INNER
G1 F2400 X28.723 Y76.250 E171.93486
G1 X28.723 Y75.750 E171.94466
G1 X123.278 Y75.750 E173.79740
G1 X123.277 Y76.250 E173.80720
G0 F10500 X123.777 Y76.750
G1 F2400 X28.223 Y76.750 E175.67952
G1 X28.223 Y75.250 E175.70891
G1 X123.778 Y75.250 E177.58124
G1 X123.777 Y76.750 E177.61064
G0 F10500 X124.277 Y77.250
G1 F2400 X27.723 Y77.250 E179.50255
G1 X27.723 Y74.750 E179.55153
G1 X124.278 Y74.750 E181.44346
G1 X124.277 Y77.250 E181.49245
G0 F10500 X124.777 Y77.750
G1 F2400 X27.223 Y77.750 E183.40395
G1 X27.223 Y74.250 E183.47253
G1 X124.778 Y74.250 E185.38406
G1 X124.777 Y77.750 E185.45264
G0 F10500 X125.277 Y78.250
;TYPE:WALL-OUTER
G1 F2160 X26.723 Y78.250 E187.38374
G1 X26.723 Y73.750 E187.47191
G1 X125.278 Y73.750 E189.40303
G1 X125.277 Y78.250 E189.49121
G0 F10500 X124.928 Y77.990
G0 X124.028 Y77.000
;LAYER:4
G0 X123.165 Y76.250 Z1.425
;TYPE:WALL-INNER
G1 F3000 X28.835 Y76.250 E191.33954
G1 X28.835 Y75.750 E191.34934
G1 X123.165 Y75.750 E193.19767
G1 X123.165 Y76.250 E193.20747
G0 F10500 X123.665 Y76.750
G1 F3000 X28.335 Y76.750 E195.07539
G1 X28.335 Y75.250 E195.10479
G1 X123.665 Y75.250 E196.97271
G1 X123.665 Y76.750 E197.00211
G0 F10500 X124.165 Y77.250
G1 F3000 X27.835 Y77.250 E198.88963
G1 X27.835 Y74.750 E198.93861
G1 X124.165 Y74.750 E200.82613
G1 X124.165 Y77.250 E200.87512
G0 F10500 X124.665 Y77.750
G1 F3000 X27.335 Y77.750 E202.78224
G1 X27.335 Y74.250 E202.85082
G1 X124.665 Y74.250 E204.75793
G1 X124.665 Y77.750 E204.82651
G0 F10500 X125.165 Y78.250
;TYPE:WALL-OUTER
G1 F2700 X26.835 Y78.250 E206.75322
G1 X26.835 Y73.750 E206.84140
G1 X125.165 Y73.750 E208.76811
G1 X125.165 Y78.250 E208.85628
G0 F10500 X124.815 Y77.990
G0 X123.915 Y77.000
;LAYER:5
G0 X123.052 Y76.250 Z1.675
;TYPE:WALL-INNER
G1 F3000 X28.948 Y76.250 E210.70019
G1 X28.948 Y75.750 E210.70998
G1 X123.053 Y75.750 E212.55391
G1 X123.052 Y76.250 E212.56371
G0 F10500 X123.552 Y76.750
G1 F3000 X28.448 Y76.750 E214.42721
G1 X28.448 Y75.250 E214.45660
G1 X123.553 Y75.250 E216.32012
G1 X123.552 Y76.750 E216.34951
G0 F10500 X124.052 Y77.250
G1 F3000 X27.948 Y77.250 E218.23260
G1 X27.948 Y74.750 E218.28159
G1 X124.053 Y74.750 E220.16470
G1 X124.052 Y77.250 E220.21369
G0 F10500 X124.552 Y77.750
G1 F3000 X27.448 Y77.750 E222.11637
G1 X27.448 Y74.250 E222.18495
G1 X124.553 Y74.250 E224.08766
G1 X124.552 Y77.750 E224.15624
G0 F10500 X125.052 Y78.250
;TYPE:WALL-OUTER
G1 F2700 X26.948 Y78.250 E226.07852
G1 X26.948 Y73.750 E226.16670
G1 X125.053 Y73.750 E228.08900
G1 X125.052 Y78.250 E228.17717
G0 F10500 X124.703 Y77.990
G0 X123.803 Y77.000
;LAYER:6
G0 X122.940 Y76.250 Z1.925
;TYPE:WALL-INNER
G1 F3000 X29.060 Y76.250 E230.01669
G1 X29.060 Y75.750 E230.02649
G1 X122.940 Y75.750 E231.86600
G1 X122.940 Y76.250 E231.87580
G0 F10500 X123.440 Y76.750
G1 F3000 X28.560 Y76.750 E233.73491
G1 X28.560 Y75.250 E233.76430
G1 X123.440 Y75.250 E235.62341
G1 X123.440 Y76.750 E235.65280
G0 F10500 X123.940 Y77.250
G1 F3000 X28.060 Y77.250 E237.53151
G1 X28.060 Y74.750 E237.58049
G1 X123.940 Y74.750 E239.45920
G1 X123.940 Y77.250 E239.50818
G0 F10500 X124.440 Y77.750
G1 F3000 X27.560 Y77.750 E241.40648
G1 X27.560 Y74.250 E241.47506
G1 X124.440 Y74.250 E243.37336
G1 X124.440 Y77.750 E243.44194
G0 F10500 X124.940 Y78.250
;TYPE:WALL-OUTER
G1 F2700 X27.060 Y78.250 E245.35983
G1 X27.060 Y73.750 E245.44801
G1 X124.940 Y73.750 E247.36590
G1 X124.940 Y78.250 E247.45408
G0 F10500 X124.590 Y77.990
G0 X123.690 Y77.000
;LAYER:7
G0 X122.827 Y76.250 Z2.175
;TYPE:WALL-INNER
G1 F3000 X29.173 Y76.250 E249.28916
G1 X29.173 Y75.750 E249.29896
G1 X122.828 Y75.750 E251.13407
G1 X122.827 Y76.250 E251.14386
G0 F10500 X123.327 Y76.750
G1 F3000 X28.673 Y76.750 E252.99855
G1 X28.673 Y75.250 E253.02794
G1 X123.328 Y75.250 E254.88264
G1 X123.327 Y76.750 E254.91203
G0 F10500 X123.827 Y77.250
G1 F3000 X28.173 Y77.250 E256.78631
G1 X28.173 Y74.750 E256.83529
G1 X123.828 Y74.750 E258.70959
G1 X123.827 Y77.250 E258.75857
G0 F10500 X124.327 Y77.750
G1 F3000 X27.673 Y77.750 E260.65244
G1 X27.673 Y74.250 E260.72102
G1 X124.328 Y74.250 E262.61491
G1 X124.327 Y77.750 E262.68349
G0 F10500 X124.827 Y78.250
;TYPE:WALL-OUTER
G1 F2700 X27.173 Y78.250 E264.59696
G1 X27.173 Y73.750 E264.68513
G1 X124.828 Y73.750 E266.59862
G1 X124.827 Y78.250 E266.68679
G0 F10500 X124.478 Y77.990
G0 X123.578 Y77.000
;LAYER:8
G0 X122.715 Y76.250 Z2.425
;TYPE:WALL-INNER
G1 F3000 X29.285 Y76.250 E268.51749
G1 X29.285 Y75.750 E268.52729
G1 X122.715 Y75.750 E270.35799
G1 X122.715 Y76.250 E270.36778
G0 F10500 X123.215 Y76.750
G1 F3000 X28.785 Y76.750 E272.21807
G1 X28.785 Y75.250 E272.24747
G1 X123.215 Y75.250 E274.09776
G1 X123.215 Y76.750 E274.12715
G0 F10500 X123.715 Y77.250
G1 F3000 X28.285 Y77.250 E275.99704
G1 X28.285 Y74.750 E276.04602
G1 X123.715 Y74.750 E277.91591
G1 X123.715 Y77.250 E277.96490
G0 F10500 X124.215 Y77.750
G1 F3000 X27.785 Y77.750 E279.85438
G1 X27.785 Y74.250 E279.92296
G1 X124.215 Y74.250 E281.81244
G1 X124.215 Y77.750 E281.88102
G0 F10500 X124.715 Y78.250
;TYPE:WALL-OUTER
G1 F2700 X27.285 Y78.250 E283.79009
G1 X27.285 Y73.750 E283.87827
G1 X124.715 Y73.750 E285.78734
G1 X124.715 Y78.250 E285.87552
G0 F10500 X124.365 Y77.990
G0 X123.465 Y77.000
;LAYER:9
G0 X122.602 Y76.250 Z2.675
;TYPE:WALL-INNER
G1 F3000 X29.398 Y76.250 E287.70179
G1 X29.398 Y75.750 E287.71159
G1 X122.603 Y75.750 E289.53788
G1 X122.602 Y76.250 E289.54767
G0 F10500 X123.102 Y76.750
G1 F3000 X28.898 Y76.750 E291.39354
G1 X28.898 Y75.250 E291.42293
G1 X123.103 Y75.250 E293.26881
G1 X123.102 Y76.750 E293.29820
G0 F10500 X123.602 Y77.250
G1 F3000 X28.398 Y77.250 E295.16366
G1 X28.398 Y74.750 E295.21265
G1 X123.603 Y74.750 E297.07813
G1 X123.602 Y77.250 E297.12711
G0 F10500 X124.102 Y77.750
G1 F3000 X27.898 Y77.750 E299.01216
G1 X27.898 Y74.250 E299.08074
G1 X124.103 Y74.250 E300.96582
G1 X124.102 Y77.750 E301.03440
G0 F10500 X124.602 Y78.250
;TYPE:WALL-OUTER
G1 F2700 X27.398 Y78.250 E302.93904
G1 X27.398 Y73.750 E303.02722
G1 X124.603 Y73.750 E304.93189
G1 X124.602 Y78.250 E305.02006
G0 F10500 X124.253 Y77.990
G0 X123.353 Y77.000
;LAYER:10
G0 X122.490 Y76.250 Z2.925
;TYPE:WALL-INNER
G1 F3000 X29.510 Y76.250 E306.84194
G1 X29.510 Y75.750 E306.85174
G1 X122.490 Y75.750 E308.67362
G1 X122.490 Y76.250 E308.68342
G0 F10500 X122.990 Y76.750
G1 F3000 X29.010 Y76.750 E310.52489
G1 X29.010 Y75.250 E310.55428
G1 X122.990 Y75.250 E312.39576
G1 X122.990 Y76.750 E312.42515
G0 F10500 X123.490 Y77.250
G1 F3000 X28.510 Y77.250 E314.28622
G1 X28.510 Y74.750 E314.33520
G1 X123.490 Y74.750 E316.19627
G1 X123.490 Y77.250 E316.24526
G0 F10500 X123.990 Y77.750
G1 F3000 X28.010 Y77.750 E318.12592
G1 X28.010 Y74.250 E318.19450
G1 X123.990 Y74.250 E320.07517
G1 X123.990 Y77.750 E320.14375
G0 F10500 X124.490 Y78.250
;TYPE:WALL-OUTER
G1 F2700 X27.510 Y78.250 E322.04401
G1 X27.510 Y73.750 E322.13218
G1 X124.490 Y73.750 E324.03244
G1 X124.490 Y78.250 E324.12061
G0 F10500 X124.140 Y77.990
G0 X123.240 Y77.000
;LAYER:11
G0 X122.377 Y76.250 Z3.175
;TYPE:WALL-INNER
G1 F3000 X29.623 Y76.250 E325.93807
G1 X29.623 Y75.750 E325.94786
G1 X122.378 Y75.750 E327.76533
G1 X122.377 Y76.250 E327.77513
G0 F10500 X122.877 Y76.750
G1 F3000 X29.123 Y76.750 E329.61218
G1 X29.123 Y75.250 E329.64157
G1 X122.878 Y75.250 E331.47864
G1 X122.877 Y76.750 E331.50803
G0 F10500 X123.377 Y77.250
G1 F3000 X28.623 Y77.250 E333.36467
G1 X28.623 Y74.750 E333.41366
G1 X123.378 Y74.750 E335.27032
G1 X123.377 Y77.250 E335.31930
G0 F10500 X123.877 Y77.750
G1 F3000 X28.123 Y77.750 E337.19554
G1 X28.123 Y74.250 E337.26412
G1 X123.878 Y74.250 E339.14037
G1 X123.877 Y77.750 E339.20895
G0 F10500 X124.377 Y78.250
;TYPE:WALL-OUTER
G1 F2700 X27.623 Y78.250 E341.10478
G1 X27.623 Y73.750 E341.19296
G1 X124.378 Y73.750 E343.08881
